myicon.svg

<?xml version="1.0" encoding="utf-8"?>
<!-- Uploaded to: SVG Repo, www.svgrepo.com, Generator: SVG Repo Mixer Tools -->
<svg width="800px" height="800px" viewBox="0 0 1024 1024" class="icon"  version="1.1" xmlns="http://www.w3.org/2000/svg"><path d="M512 768c-106.666667 0-106.666667-128-106.666667-128v-128h213.333334v128s0 128-106.666667 128z" fill="#FF9800" /><path d="M746.666667 384a42.666667 42.666667 0 1 1-85.312 0.021333A42.666667 42.666667 0 0 1 746.666667 384M362.666667 384a42.666667 42.666667 0 1 1-85.312 0.021333A42.666667 42.666667 0 0 1 362.666667 384" fill="#FFA726" /><path d="M704 256c0-162.88-384-106.048-384 0v149.333333c0 106.048 85.952 192 192 192s192-85.952 192-192v-149.333333z" fill="#FFB74D" /><path d="M512 64c-129.6 0-213.333333 105.066667-213.333333 234.666667v48.725333L341.333333 384v-106.666667l256-85.333333 85.333334 85.333333v106.666667l42.666666-37.141333V298.666667c0-85.866667-22.144-170.986667-128-192l-21.333333-42.666667h-64z" fill="#424242" /><path d="M576 384a21.333333 21.333333 0 1 0 42.666667 0 21.333333 21.333333 0 0 0-42.666667 0M405.333333 384a21.333333 21.333333 0 1 0 42.666667 0 21.333333 21.333333 0 0 0-42.666667 0" fill="#784719" /><path d="M618.666667 640s-21.333333 85.333333-106.666667 85.333333-106.666667-85.333333-106.666667-85.333333S170.666667 682.368 170.666667 917.333333v42.666667h682.666666v-42.666667c0-234.133333-234.666667-277.333333-234.666666-277.333333z" fill="#8BC34A" /><path d="M384 640l21.333333 170.666667M640 640l-21.333333 170.666667" fill="none" /><path d="M597.333333 814.08h-170.666666l36.8-57.408c3.989333-6.250667 10.752-10.005333 17.941333-10.005333h61.141333c7.210667 0 13.952 3.754667 17.984 10.005333L597.333333 814.08z" fill="#512DA8" /><path d="M640 938.666667a21.333333 21.333333 0 0 1-21.333333 21.333333H405.333333a21.333333 21.333333 0 0 1-21.333333-21.333333v-128a21.333333 21.333333 0 0 1 21.333333-21.333334h213.333334a21.333333 21.333333 0 0 1 21.333333 21.333334v128z" fill="#5E35B1" /><path d="M469.333333 874.666667a42.666667 42.666667 0 1 1 85.354667 0.021333A42.666667 42.666667 0 0 1 469.333333 874.666667" fill="#B388FF" /></svg>

<svg xmlns="http://www.w3.org/2000/svg" width="800px" height="800px" class="icon" viewBox="0 0 1024 1024"><path fill="#FF9800" d="M512 768c-106.667 0-106.667-128-106.667-128V512h213.334v128s0 128-106.667 128"/><path fill="#FFA726" d="M746.667 384a42.667 42.667 0 1 1-85.312.021 42.667 42.667 0 0 1 85.312-.021m-384 0a42.667 42.667 0 1 1-85.312.021 42.667 42.667 0 0 1 85.312-.021"/><path fill="#FFB74D" d="M704 256c0-162.88-384-106.048-384 0v149.333c0 106.048 85.952 192 192 192s192-85.952 192-192z"/><path fill="#424242" d="M512 64c-129.6 0-213.333 105.067-213.333 234.667v48.725L341.333 384V277.333l256-85.333 85.334 85.333V384l42.666-37.141v-48.192c0-85.867-22.144-170.987-128-192L576 64z"/><path fill="#784719" d="M576 384a21.333 21.333 0 1 0 42.667 0A21.333 21.333 0 0 0 576 384m-170.667 0A21.333 21.333 0 1 0 448 384a21.333 21.333 0 0 0-42.667 0"/><path fill="#8BC34A" d="M618.667 640S597.333 725.333 512 725.333 405.333 640 405.333 640s-234.666 42.368-234.666 277.333V960h682.666v-42.667C853.333 683.2 618.667 640 618.667 640"/><path fill="none" d="m384 640 21.333 170.667M640 640l-21.333 170.667"/><path fill="#512DA8" d="M597.333 814.08H426.667l36.8-57.408c3.989-6.25 10.752-10.005 17.941-10.005h61.141c7.211 0 13.952 3.754 17.984 10.005z"/><path fill="#5E35B1" d="M640 938.667A21.333 21.333 0 0 1 618.667 960H405.333A21.333 21.333 0 0 1 384 938.667v-128a21.333 21.333 0 0 1 21.333-21.334h213.334A21.333 21.333 0 0 1 640 810.667z"/><path fill="#B388FF" d="M469.333 874.667a42.667 42.667 0 1 1 85.355.021 42.667 42.667 0 0 1-85.355-.021"/></svg>
